!!!!SEGMENT: Wil3030-Jan_Jan_quant_tu_ten_iras.krn
!!!id: Wil3030
!!!AGN: Chanson
!!!SCT: Bernstein (1984)
!!!voices: 3
!!!COM: Adrian Willaert
!!!OTL: Jan, Jan, quant tu t'en iras
**kern	**kern	**kern
*part3	*part2	*part1
*staff3	*staff2	*staff1
*I"Bassus	*I"Tenor	*I"Superius
*I'B	*I'T	*I'S
*clefGv2	*clefGv2	*clefG2
*k[b-]	*k[b-]	*k[b-]
*F:	*F:	*F:
*M2/1	*M2/1	*M2/1
*M2/1	*M2/1	*M2/1
*met(C)	*met(C)	*met(C|)
=1	=1	=1
1A	0r	0r
1d	.	.
=2	=2	=2
4c	2r	0r
4B-y	.	.
4A	1e	.
4G	.	.
2.c	.	.
.	[2a	.
4A	.	.
=3	=3	=3
4d	2a]	0r
4c	.	.
4B-y	4g	.
4A	4f	.
2G	4e	.
.	4d	.
2G	[2g	.
=4	=4	=4
2B-y	4g]	0r
.	4f	.
2c	4e	.
.	4g	.
4d	4f	.
4c	4e	.
4c	2d	.
4Bni	.	.
=5	=5	=5
2.c	2c	0r
.	1e	.
4A	.	.
4A	.	.
4G	.	.
4G	2a	.
4F#i	.	.
=6	=6	=6
2G	4r	0r
.	4g	.
4r	4f	.
4c	4e	.
2B-y	4d	.
.	2g	.
2A	.	.
.	4f	.
=7	=7	=7
2G	4e	1r
.	4d	.
2E	4d	.
.	4c#i	.
2D	2d	1a
2d	[2f	.
=8	=8	=8
1B-y	2f]	1dd
.	2g	.
4A	4a	4cc
4B-y	4f	4b-y
4c	4f	4a
4c	4e	4g
=9	=9	=9
2F	4f	2.cc
.	4f	.
4r	4e	.
4G	4d	4b-y
4F	4f	4a
4C	4e	4cc
4G	2d	4b-y
4F	.	4a
=10	=10	=10
2E-X	2G	2g
2D	1A	2f
1F	.	1a
.	2c	.
=11	=11	=11
1B-y	4r	1dd
.	2d	.
.	2f	.
4A	.	4r
4A	4e	4cc
4B-y	4d	4b-y
4F	4f	4a
=12	=12	=12
4c	2.e	4g
4A	.	2cc
4A	.	.
4B-y	4d	4b-y
4F	4c	4a
4G	4B-y	4g
2D	4A	4g
.	4A	4f#i
=13	=13	=13
2r	2G	4g
.	.	2b-y
4G	4d	.
4c	4e	4cc
2B-y	2f	2dd
4c	4e	2r
4A	4f	.
=14	=14	=14
4B-y	4d	1r
4A	4c	.
4G	4d	.
4G	4e	.
2F	4f	2r
.	2f	.
4D	.	4a
4G	4d	4b-y
=15	=15	=15
2F	2a	2cc
2r	4g	4b-y
.	4e	4cc
1r	4f	4a
.	4e	4g
.	4d	4a
.	4d	4b-y
=16	=16	=16
4r	4c	2cc
2F	2A	.
.	.	4cc
4G	4B-y	4b-y
2F	2c	2a
4G	2r	4b-y
4A	.	4a
=17	=17	=17
4B-y	2r	4g
4B-y	.	4f
4c	4r	4a
4d	4f	4b-y
4c	4g	2cc
2F	4a	.
.	4f	4a
4G	4d	4b-y
=18	=18	=18
2C	4e	2g
.	2e	.
4C	.	4cc
4D	4d	4b-y
4F	4c	4a
4G	4B-y	4g
4D	4A	4g
4D	4A	4f#i
=19	=19	=19
2G	0G	1g
2r	.	.
2.d	.	2r
.	.	[2g
4d	.	.
=20	=20	=20
2c	0r	4g]
.	.	4g
2A	.	2f
2B-y	.	2d
2c	.	2e
=21	=21	=21
1G	2.g	2e
.	.	2d
.	4g	.
2.B-y	2f	4r
.	.	2dd
.	2d	.
4B-y	.	4dd
=22	=22	=22
2A	2e	2cc
2c	2e	2a
2B-y	4d	2b-y
.	2g	.
2G	.	2b-y
.	4g	.
=23	=23	=23
2D	2f	2a
2r	2d	2.dd
2.A	2e	.
.	.	8cc#iL
.	.	8bniJ
.	2e	2cc#i
4A	.	.
=24	=24	=24
2B-y	2d	2dd
2G	2.g	2r
2A	.	4r
.	8f#iL	2cc
.	8eJ	.
2A	2f#i	.
.	.	4cc
=25	=25	=25
4G	4g	4b-y
2G	4d	4g
.	4d	4b-y
4G	4B-y	4b-y
4F	4c	2a
4D	2d	.
4F	.	2r
4E	4c	.
=26	=26	=26
2D	4d	4r
.	2f	2dd
2D	.	.
.	4f	4dd
2A	4e	4cc
.	4c	4a
2r	4d	4b-y
.	4f	4a
=27	=27	=27
4r	2e	2g
2c	.	.
.	4r	2g
4c	2g	.
4B-y	.	4dd
4G	4g	2dd
4B-y	4f	.
4B-y	4d	4b-y
=28	=28	=28
2A	2e	4cc
.	.	4dd
2A	2e	4dd
.	.	4cc#i
1d	2d	2dd
.	2f	4r
.	.	[4a
=29	=29	=29
4c	2r	4a]
4B-y	.	4dd
4A	1e	4cc
4G	.	4b-y
2.c	.	4a
.	.	4g
.	[2a	2cc
4A	.	.
=30	=30	=30
4d	2a]	0r
4c	.	.
4B-y	4g	.
4A	4f	.
2G	4e	.
.	4d	.
2G	[2g	.
=31	=31	=31
2B-y	4g]	0r
.	4f	.
2c	4e	.
.	4g	.
4d	4f	.
4c	4e	.
4c	2d	.
4Bni	.	.
=32	=32	=32
2.c	2c	0r
.	1e	.
4A	.	.
4A	.	.
4G	.	.
4G	2a	.
4F	.	.
=33	=33	=33
2G	4r	0r
.	4g	.
4r	4f	.
4c	4e	.
2B-y	4d	.
.	2g	.
2A	.	.
.	4f	.
=34	=34	=34
2G	4e	1r
.	4d	.
2E	4d	.
.	4c#i	.
2D	2d	1a
2D	[2f	.
=35	=35	=35
2r	2f]	1dd
2D	2f	.
4A	4e	4cc
4B-y	4d	4b-y
4F	4c	4a
4G	4B-y	4g
=36	=36	=36
2.F	2.A	2.cc
4G	4B-y	4b-y
4F	4c	4a
4F	4A	4cc
4G	4B-y	4b-y
4F	4c	4a
=37	=37	=37
2G	2B-y	2g
1D	2A	2f
.	1f	1a
[2d	.	.
=38	=38	=38
2d]	2r	1dd
2B-y	2f	.
4e-i	4g	4cc
4d	4f	4b-y
4c	4e	4a
4B-y	4d	4g
=39	=39	=39
2.A	2.e	2.cc
4d	4f	4b-y
4c	4e	4a
4B-y	4d	4g
4c	4e	4g
4A	4c	4f#i
=40	=40	=40
2G	2d	4g
.	.	2b-y
4G	4d	.
4c	4e	4cc
2B-y	2f	2dd
4c	4e	4g
4F	4f	4a
=41	=41	=41
4G	4d	4b-y
4A	4c	4a
4B-y	4d	4f
4G	4e	4b-y
2F	4f	2a
.	2f	.
4D	.	4a
4G	4d	4b-y
=42	=42	=42
2F	2a	2cc
2r	4g	4b-y
.	4e	4cc
1r	4f	4a
.	4e	4g
.	4d	4a
.	4d	4b-y
=43	=43	=43
4r	4c	2cc
2F	2A	.
.	.	4cc
4G	4B-y	4b-y
2F	2c	2a
4G	2r	4b-y
4A	.	4a
=44	=44	=44
4B-y	2r	4g
4B-y	.	4f
4c	4r	4a
4d	4f	4b-y
4c	4g	2cc
2F	4a	.
.	4f	4a
4G	4d	4b-y
=45	=45	=45
2C	4e	2g
.	2e	.
4C	.	4cc
4D	4d	4b-y
4F	4c	4a
4G	4B-y	4g
4D	4A	4g
4D	4A	4f#i
=46	=46	=46
00Gl	00Gl	00gl
==	==	==
*-	*-	*-
!!!system-decoration: [*]
!!!RDF**kern: i = editorial accidental
!!!RDF**kern: l = terminal long
!!!ENC: Benjamin Ory
!!!END: 2023/9/30
!!!EED: Benjamin Ory
!!!EEV: 2023/09/30
!!!YEC: Copyright 2023 Benjamin Ory, All Rights Reserved
!!!ONB: Translated from MusicXML on 2023/09/30
